!!!SOCIAL_FUNCTION:	winter dance songs
!!!PDT:	1957
!!!OTL: No_25_The_Rain_Clouds_Are_Caring_for_the_Little_Corn_Plants.krn
!!!LING_GROUP: Keresan
!!!LANG: Tone
!!!REG: Southwest
**kern
*staff1
=1-
*clefF4
*k[f#c#g#d#a#]
*M3/4
4G#\
4G#\
4G#\
=2!|:
16f#\LK
8.f#\J
16f#\LK
8.g#\J
16g#\LK
8.f#\J
=3
*M2/4
8c#\L
8c#\J
8c#\L
16d#\L
16c#\JJ
=4
*M5/8
8B\L
8B\
8B\
8G#\
8G#\J
=5
*M2/4
16c#\LK
8.c#\J
16c#\LK
8.d#\J
=6
16d#\LK
8.c#\J
8G#\L
16G#\Jk
16r
=7
4c#\
16B\LK
8.B\J
=8
8c#\L
8B\J
8G#\L
8G#\J
=9
4c#\
16B\LK
8.B\J
=10
*M3/4
8c#\L
8B\J
8G#\L
8G#\J
8G#\L
8c#\J
=11
8B\L
8G#\J
8G#\L
8G#\J
8G#\
8r
=12
8c#\L
8G#\J
8G#\L
8G#\J
8G#\L
8G#\J
=13:|!
8.c#\L
16B\Jk
8.c#\L
16B\Jk
4c#\
=14
*M7/8
8.B\L
16c#\K
8B\
8G#\
8G#\
8G#\J
8r
=15
*M3/4
8.c#\L
16B\Jk
8.c#\L
16B\Jk
4c#\
=16
*M7/8
8.B\L
16c#\K
8B\
8G#\
8G#\
8G#\J
8r
=17
*M2/4
16B\LL
16B\
16B\
16G#\JJ
16B\LL
16B\
16B\
16c#\JJ
=18
20B\LL
20G#\
20B\
20G#\
20G#\JJ
4G#\
=19
*M3/4
8B\L
8G#\J
8G#\L
8G#\J
8G#\L
8G#\J
==:|!
*-
